fs/clipboard_arrow_right_20_filled.svg

<svg viewBox="0 0 20 20" fill="none" xmlns="http://www.w3.org/2000/svg" height="1em" width="1em">
  <path d="M7.08535 3C7.29127 2.4174 7.84689 2 8.5 2H11.5C12.1531 2 12.7087 2.4174 12.9146 3H14.5C15.3284 3 16 3.67157 16 4.5V9.20703C15.5232 9.07217 15.02 9 14.5 9C11.4624 9 9 11.4624 9 14.5C9 15.8296 9.47182 17.0491 10.2572 18H5.5C4.67157 18 4 17.3284 4 16.5V4.5C4 3.67157 4.67157 3 5.5 3H7.08535ZM8.5 3C8.22386 3 8 3.22386 8 3.5C8 3.77614 8.22386 4 8.5 4H11.5C11.7761 4 12 3.77614 12 3.5C12 3.22386 11.7761 3 11.5 3H8.5ZM19 14.5C19 16.9853 16.9853 19 14.5 19C12.0147 19 10 16.9853 10 14.5C10 12.0147 12.0147 10 14.5 10C16.9853 10 19 12.0147 19 14.5ZM16.8532 14.854L16.8557 14.8514C16.9026 14.804 16.938 14.7495 16.9621 14.6914C16.9861 14.6333 16.9996 14.5697 17 14.503L17 14.5L17 14.497C16.9996 14.4303 16.9861 14.3667 16.9621 14.3086C16.9377 14.2496 16.9015 14.1944 16.8536 14.1464L14.8536 12.1464C14.6583 11.9512 14.3417 11.9512 14.1464 12.1464C13.9512 12.3417 13.9512 12.6583 14.1464 12.8536L15.2929 14H12.5C12.2239 14 12 14.2239 12 14.5C12 14.7761 12.2239 15 12.5 15H15.2929L14.1464 16.1464C13.9512 16.3417 13.9512 16.6583 14.1464 16.8536C14.3417 17.0488 14.6583 17.0488 14.8536 16.8536L16.8532 14.854Z" fill="#212121"/>
</svg>

<svg viewBox="0 0 20 20" fill="none" xmlns="http://www.w3.org/2000/svg" height="1em" width="1em">
  <path d="M7.085 3A1.5 1.5 0 0 1 8.5 2h3a1.5 1.5 0 0 1 1.415 1H14.5A1.5 1.5 0 0 1 16 4.5v4.707A5.5 5.5 0 0 0 10.257 18H5.5A1.5 1.5 0 0 1 4 16.5v-12A1.5 1.5 0 0 1 5.5 3h1.585ZM8.5 3a.5.5 0 0 0 0 1h3a.5.5 0 0 0 0-1h-3ZM19 14.5a4.5 4.5 0 1 1-9 0 4.5 4.5 0 0 1 9 0Zm-2.147.354.003-.003a.499.499 0 0 0 .144-.348v-.006a.5.5 0 0 0-.146-.35l-2-2a.5.5 0 0 0-.708.707L15.293 14H12.5a.5.5 0 0 0 0 1h2.793l-1.147 1.146a.5.5 0 0 0 .708.708l2-2Z" fill="#212121"/>
</svg>
